fs/call_16_filled.svg

<svg viewBox="0 0 16 16" fill="none" xmlns="http://www.w3.org/2000/svg" height="1em" width="1em">
  <path d="M6.75619 7.02357L7.82888 6.03964C8.42977 5.48847 8.6359 4.62769 8.34984 3.86412L7.89146 2.64059C7.53635 1.69269 6.5051 1.18461 5.53712 1.48065C3.82092 2.00552 2.50193 3.60029 2.908 5.49489C3.17505 6.74083 3.68561 8.30474 4.65402 9.96949C5.62409 11.6371 6.73194 12.8699 7.6816 13.7345C9.11604 15.0404 11.1662 14.7138 12.4852 13.484C13.219 12.7999 13.294 11.6629 12.6564 10.8884L11.8158 9.86729C11.2975 9.23777 10.449 8.98589 9.67123 9.2307L8.28278 9.66771C8.22939 9.61283 8.16753 9.5472 8.10006 9.47198C7.87193 9.21762 7.58657 8.86114 7.34658 8.44546C7.10659 8.02978 6.94055 7.60441 6.83433 7.27968C6.80292 7.18364 6.77702 7.09725 6.75619 7.02357Z" fill="#212121"/>
</svg>

<svg viewBox="0 0 16 16" fill="none" xmlns="http://www.w3.org/2000/svg" height="1em" width="1em">
  <path d="M6.756 7.024 7.83 6.04a2 2 0 0 0 .52-2.176l-.458-1.223a1.916 1.916 0 0 0-2.354-1.16c-1.716.525-3.035 2.12-2.629 4.014.267 1.246.778 2.81 1.746 4.474.97 1.668 2.078 2.9 3.028 3.766 1.434 1.305 3.484.979 4.803-.251a1.899 1.899 0 0 0 .171-2.596l-.84-1.02A2 2 0 0 0 9.67 9.23l-1.388.437a6.63 6.63 0 0 1-.936-1.223 6.269 6.269 0 0 1-.59-1.421Z" fill="#212121"/>
</svg>
